X: 19
T: Franchoise
M: 6/2
L: 1/8
K:C clef=treble-8 octave=1 
V:1
C4C4C4 B,4G,4A,2B,2| 
C3 B,A,2 G,2A,4 G,4G,4G,4| 
C4C4C4 B,3 A,G,4A,2B,2| 
C4G,2 B,2A,4 G,4G,4C2B,2|
A,4G,2 F,3 E,D,2 E,4C,4C,4| 
F,4E,2 C,2D,4 E,4E,4C2B,2| 
A,4G,2 F,3 E,D,2 E,4C,4C,4| 
F,3 E,D,2 C,2D,4 C,4C,4C,4|
C,4C,4D,4 E,4E,4F,4| 
E,4D,4D,4 C,4C,4C,4| 
C,4C,4D,4 E,4E,4F,4| 
E,2 (3G,4-G,F,4- F,D,4-D, C,4C,4C,4|
C4C4C4 B,4G,4A,2B,2| 
C3 B,A,2 G,2A,4 G,4G,4G,4| 
C4C4C4 B,3 A,G,4A,2B,2| 
C4G,2 B,2A,4 G,4G,4C2B,2|
A,4G,2 F,3 E,D,2 E,4C,4C,4| 
F,4E,2 C,2D,4 E,4E,4C2B,2| 
A,4G,2 F,3 E,D,2 E,4C,4C,4| 
F,3 E,D,2 C,2D,4 C,4C,4C,4|
C,4C,4D,4 E,4E,4F,4| 
E,4D,4D,4 C,4C,4C,4| 
C,4C,4D,4 E,4E,4F,4| 
E,2 (3G,4-G,F,4- F,D,4-D, C,4C,4C,4|
C,16

